X: 1
T:Carrickfergus
M:6/8
L:1/8
S:Ir-Trad, Dan Mozell, 3/97
K:C
|z2 "C"c c2 B|("Dm"A D)-D3-|"G"D2 E F2 G|("C"E/2 D/2) C2-"Am"C3-
w:I wish I was___ in Car-rick-fer-_gus_
|C3 CDE|("Dm"F2 E D3)-|"G"D3 CCD|"C"C6-
w:_ On-ly for nights___ in Ball-y-gran
|C3 c c2 B|("Dm"A D2)- D3|"G"D2 E F2 G|("C"E/2D/2) C2-C3-
w:_ I would swim o-ver__ the deep-est o-_ cean_
|"Am"C3 CDE|("Dm"F2 E D3)-|"G"D3 CCD|"C"C6-
w:_ on-ly for nights___ in Ball-y-gran_
